assets/img/logo_Finaptic_Footer_Colour.svg

<svg xmlns="http://www.w3.org/2000/svg" xmlns:xlink="http://www.w3.org/1999/xlink" width="162" height="52" viewBox="0 0 162 52">
  <defs>
    <polygon id="logo_finaptic_footer_colour-a" points="0 52 161.2 52 161.2 0 0 0"/>
  </defs>
  <g fill="none" fill-rule="evenodd">
    <polygon fill="#E47C2B" points="18.063 0 10.492 3.793 10.492 3.776 0 9.107 0 52 10.492 46.641 10.492 35.088 18.063 31.264 18.063 18.498 10.492 22.305 10.492 17.175 18.063 13.287"/>
    <polygon fill="#1F3061" points="18.063 0 18.063 13.287 32.555 20.251 32.555 6.869"/>
    <polygon fill="#2F4B9F" points="28.444 23.139 18.063 18.498 18.063 31.264 28.444 35.922"/>
    <polygon fill="#1F3061" points="43.563 40.005 43.563 12.551 58.278 12.551 58.278 15.224 46.659 15.224 46.659 25.4 57.031 25.4 57.031 28.074 46.659 28.074 46.659 40.005"/>
    <path fill="#1F3061" d="M61.8956126 40.0055725L64.7907577 40.0055725 64.7907577 19.6539026 61.8956126 19.6539026 61.8956126 40.0055725zM61.7752345 13.7078956L64.9111359 13.7078956 64.9111359 10.3558618 61.7752345 10.3558618 61.7752345 13.7078956zM70.0975122 40.0054219L70.0975122 19.653752 72.6704687 19.653752 72.8313101 22.5670143 73.0326147 22.5670143C73.3001779 21.9018286 73.6688992 21.33002 74.1377671 20.8510863 74.6066349 20.3721526 75.2368499 19.9996486 76.0279063 19.7335743 76.8179512 19.4680021 77.8168875 19.3344629 79.0226922 19.3344629 80.3630371 19.3344629 81.4418884 19.4880831 82.2592459 19.7933155 83.0766034 20.0995519 83.7002432 20.5714573 84.1286478 21.2100355 84.5575581 21.8486138 84.845353 22.6603913 84.9930438 23.6443641 85.1402289 24.6288389 85.2145801 25.8126184 85.2145801 27.1957026L85.2145801 40.0054219 82.2794775 40.0054219 82.2794775 28.15357C82.2794775 26.7704858 82.232439 25.6665286 82.1388677 24.8416984 82.0442849 24.0168681 81.8434861 23.3988729 81.5354596 22.9862068 81.2274332 22.5735407 80.7777854 22.2944137 80.1890452 22.1478218 79.5987876 22.002234 78.8218933 21.9284361 77.8573507 21.9284361 76.6773414 21.9284361 75.7593316 22.1081617 75.1028154 22.4666089 74.4462993 22.8260602 73.9703504 23.3316013 73.6754745 23.9832323 73.3805986 24.6358673 73.1934561 25.4200334 73.1130354 26.3377386 73.0326147 27.2559459 72.9926573 28.3001619 72.9926573 29.4703867L72.9926573 40.0054219 70.0975122 40.0054219zM96.2702005 37.8904326C96.9939867 37.8904326 97.6434218 37.8442461 98.2195172 37.7508691 98.7956127 37.6579942 99.3054495 37.4712401 99.7475105 37.1921132 100.190077 36.9129862 100.517829 36.5204011 100.732285 36.01486 101.000354 35.4299986 101.195083 34.7979467 101.315967 34.1192063 101.436345 33.4409679 101.496534 32.6497735 101.496534 31.7451209L101.496534 30.5081266 95.6268349 30.5081266C94.6617865 30.5081266 93.9243439 30.6015036 93.4150128 30.7877556 92.9061875 30.9740076 92.557192 31.3259284 92.3700495 31.8450243 92.1824013 32.3636181 92.0883242 33.1553146 92.0883242 34.2196117 92.0883242 35.2035845 92.1955518 35.9616451 92.4105128 36.4937937 92.6244622 37.0259422 93.0336467 37.3919199 93.6365491 37.5912246 94.2394514 37.7910313 95.1175038 37.8904326 96.2702005 37.8904326M95.2651946 40.3247612C93.8980428 40.3247612 92.765072 40.1515619 91.8677995 39.8056654 90.9695155 39.4602708 90.299343 38.8618547 89.8572821 38.009915 89.4147154 37.1589794 89.1941907 35.9616451 89.1941907 34.4189164 89.1941907 32.8761876 89.3611016 31.6652986 89.6964407 30.7877556 90.031274 29.9097105 90.6139448 29.2907112 91.4454644 28.931762 92.2759725 28.5723107 93.4150128 28.3930871 94.8630912 28.3930871 95.1847739 28.3930871 95.600028 28.4001155 96.1093591 28.4126661 96.6176786 28.4262209 97.1811292 28.4397756 97.7981937 28.4528283 98.4137408 28.466885 99.0373806 28.4799377 99.6670898 28.4924884 100.296799 28.5065452 100.906782 28.5266263 101.496534 28.5522296L101.496534 27.1555907C101.496534 25.9055436 101.422689 24.9210688 101.275504 24.2026683 101.127813 23.4847698 100.859238 22.9526212 100.471297 22.6067247 100.082344 22.2613301 99.52648 22.0419444 98.8026937 21.9480653 98.0789075 21.8556924 97.140666 21.8085018 95.9884751 21.8085018 95.479144 21.8085018 94.882817 21.8285829 94.199494 21.8687451 93.5161709 21.9084052 92.8389174 21.96162 92.1692507 22.0278876 91.4985724 22.0946572 90.9088206 22.1679531 90.4005011 22.2477754L90.4005011 19.892767C91.3382368 19.7070171 92.3629685 19.5679556 93.4762135 19.4740766 94.5879411 19.3812016 95.7330509 19.3345131 96.9130603 19.3345131 98.1997914 19.3345131 99.2852179 19.4143354 100.169846 19.5739799 101.054473 19.7336245 101.77826 19.9931724 102.340699 20.3516197 102.903644 20.7110709 103.332048 21.197033 103.62743 21.8085018 103.9218 22.4209747 104.122599 23.1654806 104.230332 24.0435257 104.337054 24.9210688 104.391679 25.9457058 104.391679 27.1159306L104.391679 40.0054721 101.818217 40.0054721 101.657376 37.1318699 101.416114 37.1318699C101.094431 38.0370245 100.611907 38.7222913 99.968541 39.1871682 99.3256812 39.6530492 98.5953196 39.9592856 97.7774563 40.1048734 96.959593 40.2509633 96.1225096 40.3247612 95.2651946 40.3247612M117.417101 37.7306374C118.488365 37.7306374 119.346692 37.6447908 119.990058 37.4710895 120.632917 37.2988943 121.122017 36.9524957 121.457356 36.4339019 121.792189 35.9153081 122.020301 35.1241136 122.141185 34.0598165 122.261563 32.9955194 122.321752 31.5853258 122.321752 29.8297376 122.321752 28.047542 122.261563 26.631324 122.141185 25.5795775 122.020301 24.5288352 121.792189 23.7441671 121.457356 23.2250712 121.122017 22.7064774 120.632917 22.3610829 119.990058 22.1878836 119.346692 22.0146843 118.488365 21.9283357 117.417101 21.9283357 116.183984 21.9283357 115.211854 22.1281424 114.501724 22.5272538 113.791594 22.9258632 113.301989 23.5784982 113.034426 24.4821467 112.819465 25.1478344 112.685936 25.8928424 112.632322 26.7171706 112.578709 27.5420008 112.552407 28.5791885 112.552407 29.8297376 112.552407 31.0004644 112.585284 32.0045182 112.652554 32.8424012 112.719318 33.6807862 112.819465 34.3524982 112.954511 34.8575373 113.248881 35.895227 113.751637 36.6332066 114.461767 37.0719781 115.171897 37.5112517 116.156671 37.7306374 117.417101 37.7306374L117.417101 37.7306374zM109.657262 47.8269011L109.657262 19.6536516 112.230219 19.6536516 112.39106 22.5669139 112.592365 22.5669139C112.940349 21.6627634 113.402641 20.9774966 113.979243 20.5116156 114.555338 20.0462367 115.232086 19.7334739 116.009992 19.5738293 116.786886 19.4146868 117.6179 19.3343625 118.502528 19.3343625 119.842367 19.3343625 120.947519 19.4940071 121.818996 19.8137982 122.689967 20.1325853 123.37329 20.6782886 123.869977 21.449402 124.365146 22.2210174 124.720211 23.2853145 124.935172 24.6422933 125.149121 25.99877 125.256854 27.7146981 125.256854 29.7900774 125.256854 31.8644527 125.156202 33.5874092 124.954898 34.9574407 124.754099 36.3279742 124.405103 37.3987976 123.909934 38.169911 123.413248 38.9415264 122.737512 39.493756 121.879185 39.8260979 121.021364 40.1584397 119.909637 40.3246106 118.542991 40.3246106 117.577437 40.3246106 116.713041 40.2307316 115.949803 40.0449816 115.185553 39.8592316 114.542188 39.5534972 114.019706 39.1272764 113.496718 38.7025616 113.074889 38.1433036 112.753206 37.4515105L112.552407 37.4515105 112.552407 47.8269011 109.657262 47.8269011z"/>
    <polygon fill="#1F3061" points="131.046 40.005 131.046 22.128 127.468 22.128 127.468 19.654 131.046 19.654 131.046 13.747 133.981 13.747 133.981 19.654 138.203 19.654 138.203 22.128 133.981 22.128 133.981 40.005"/>
    <mask id="logo_finaptic_footer_colour-b" fill="#fff">
      <use xlink:href="#logo_finaptic_footer_colour-a"/>
    </mask>
    <path fill="#1F3061" d="M141.419037 40.0055223L144.314183 40.0055223 144.314183 19.6538524 141.419037 19.6538524 141.419037 40.0055223zM141.298659 13.7078454L144.434561 13.7078454 144.434561 10.3558116 141.298659 10.3558116 141.298659 13.7078454zM156.254785 40.3246106C154.888139 40.3246106 153.755674 40.1980998 152.85739 39.9455803 151.959611 39.6930607 151.242906 39.3009777 150.706768 38.7683271 150.17063 38.2366806 149.768527 37.5579402 149.500458 36.733612 149.232389 35.9087817 149.058397 34.9243069 148.977976 33.7801875 148.897555 32.6370722 148.857598 31.3197535 148.857598 29.8297376 148.857598 28.2604014 148.910706 26.8903699 149.017933 25.719141 149.124655 24.5489162 149.32596 23.5513887 149.621342 22.7265585 149.916217 21.9022303 150.338047 21.2435709 150.887841 20.7510825 151.43713 20.2590961 152.140179 19.8996448 152.998505 19.6737327 153.85582 19.4478206 154.91444 19.3343625 156.17487 19.3343625 156.979077 19.3343625 157.843473 19.381051 158.768058 19.474428 159.692643 19.567805 160.449306 19.6933117 161.039563 19.8534583L161.039563 22.2476248C160.449306 22.1150897 159.773064 22.0081579 159.008814 21.9283357 158.245576 21.8485134 157.527859 21.8083512 156.857687 21.8083512 155.75911 21.8083512 154.867907 21.9223113 154.184584 22.1477214 153.501261 22.3741356 152.984343 22.7662186 152.636865 23.3249746 152.287869 23.8837306 152.059758 24.6884797 151.953036 25.7392221 151.845808 26.7904665 151.792195 28.1534696 151.792195 29.8297376 151.792195 31.5321109 151.845808 32.9156971 151.953036 33.9794922 152.059758 35.0437893 152.29495 35.8555669 152.657096 36.4138208 153.018737 36.9725768 153.541218 37.3516071 154.224541 37.5514138 154.90837 37.7507185 155.812724 37.8506219 156.938613 37.8506219 157.635087 37.8506219 158.365954 37.8104597 159.129698 37.7306374 159.893442 37.6513172 160.58334 37.5448875 161.199899 37.4113483L161.199899 39.8060168C160.557039 39.9656614 159.785708 40.0916701 158.888436 40.1850471 157.990152 40.2779221 157.1121 40.3246106 156.254785 40.3246106" mask="url(#logo_finaptic_footer_colour-b)"/>
  </g>
</svg>

<svg xmlns="http://www.w3.org/2000/svg" xmlns:xlink="http://www.w3.org/1999/xlink" width="162" height="52"><defs><path id="a" d="M0 52h161.2V0H0z"/></defs><g fill="none" fill-rule="evenodd"><path fill="#E47C2B" d="M18.063 0l-7.571 3.793v-.017L0 9.107V52l10.492-5.359V35.088l7.571-3.824V18.498l-7.571 3.807v-5.13l7.571-3.888z"/><path fill="#1F3061" d="M18.063 0v13.287l14.492 6.964V6.869z"/><path fill="#2F4B9F" d="M28.444 23.139l-10.381-4.641v12.766l10.381 4.658z"/><path fill="#1F3061" d="M43.563 40.005V12.551h14.715v2.673H46.659V25.4h10.372v2.674H46.659v11.931zm18.333.001h2.895V19.654h-2.895v20.352zm-.12-26.298h3.135v-3.352h-3.136v3.352zm8.322 26.297V19.654h2.572l.161 2.913h.202a5.19 5.19 0 011.105-1.716c.469-.479 1.099-.851 1.89-1.117.79-.266 1.789-.4 2.995-.4 1.34 0 2.419.154 3.236.46.818.306 1.441.777 1.87 1.416.429.639.716 1.45.864 2.434.147.985.222 2.169.222 3.552v12.81h-2.936V28.153c0-1.384-.047-2.487-.14-3.312-.095-.825-.296-1.443-.604-1.856-.308-.412-.757-.692-1.346-.838-.59-.146-1.367-.22-2.332-.22-1.18 0-2.098.18-2.754.539-.657.36-1.133.865-1.428 1.516-.294.653-.482 1.437-.562 2.355-.08.918-.12 1.962-.12 3.132v10.535h-2.895zM96.27 37.89c.724 0 1.373-.046 1.95-.14a4.031 4.031 0 001.528-.558c.442-.279.77-.672.984-1.177a7.821 7.821 0 00.584-1.896c.12-.678.18-1.47.18-2.374v-1.237h-5.87c-.964 0-1.702.094-2.211.28a1.678 1.678 0 00-1.045 1.057c-.188.519-.282 1.31-.282 2.375 0 .984.108 1.742.323 2.274.213.532.623.898 1.226 1.097.602.2 1.48.3 2.633.3m-1.005 2.434c-1.367 0-2.5-.173-3.397-.52a3.681 3.681 0 01-2.01-1.795c-.443-.851-.664-2.048-.664-3.591 0-1.543.167-2.754.502-3.631.335-.878.918-1.497 1.75-1.856.83-.36 1.969-.539 3.417-.539.322 0 .737.007 1.246.02a644.885 644.885 0 003.558.08c.63.014 1.24.034 1.83.06v-1.397c0-1.25-.074-2.235-.221-2.953-.148-.718-.417-1.25-.805-1.596-.389-.346-.945-.565-1.668-.659-.724-.092-1.662-.14-2.815-.14-.509 0-1.105.02-1.789.06-.683.04-1.36.094-2.03.16-.67.067-1.26.14-1.768.22v-2.355a27.98 27.98 0 013.075-.419 41.276 41.276 0 013.437-.14c1.287 0 2.372.08 3.257.24.884.16 1.608.42 2.17.778.564.36.992.845 1.287 1.457.295.612.496 1.356.603 2.235.107.877.162 1.902.162 3.072v12.89h-2.574l-.16-2.874h-.242c-.322.905-.804 1.59-1.447 2.055a5.249 5.249 0 01-2.192.918 14.25 14.25 0 01-2.512.22m22.152-2.594c1.071 0 1.93-.086 2.573-.26.643-.172 1.132-.519 1.467-1.037.335-.519.563-1.31.684-2.374.12-1.064.18-2.475.18-4.23 0-1.782-.06-3.199-.18-4.25-.12-1.051-.349-1.836-.684-2.355-.335-.519-.824-.864-1.467-1.037-.643-.173-1.502-.26-2.573-.26-1.233 0-2.205.2-2.915.6-.71.398-1.2 1.05-1.468 1.954a9.217 9.217 0 00-.402 2.235c-.053.825-.08 1.862-.08 3.113 0 1.17.033 2.175.1 3.012.067.839.167 1.51.303 2.016.294 1.037.797 1.775 1.507 2.214.71.44 1.695.659 2.955.659zm-7.76 10.096V19.654h2.573l.161 2.913h.201c.348-.904.81-1.59 1.387-2.055a4.671 4.671 0 012.031-.938 12.41 12.41 0 012.493-.24c1.34 0 2.445.16 3.316.48a4.018 4.018 0 012.051 1.635c.495.772.85 1.836 1.065 3.193.214 1.357.322 3.073.322 5.148 0 2.074-.1 3.797-.302 5.167-.2 1.371-.55 2.442-1.045 3.213a4.13 4.13 0 01-2.03 1.656c-.859.332-1.97.499-3.337.499-.966 0-1.83-.094-2.593-.28-.764-.186-1.408-.492-1.93-.918-.523-.424-.945-.984-1.267-1.675h-.2v10.375h-2.896zm21.389-7.822V22.128h-3.578v-2.474h3.578v-5.907h2.935v5.907h4.222v2.474h-4.222v17.877z"/><mask id="b" fill="#fff"><use xlink:href="#a"/></mask><path fill="#1F3061" d="M141.419 40.006h2.895V19.654h-2.895v20.352zm-.12-26.298h3.136v-3.352h-3.136v3.352zm14.956 26.617c-1.367 0-2.5-.127-3.398-.38-.897-.252-1.614-.644-2.15-1.177-.536-.531-.938-1.21-1.207-2.034-.268-.825-.442-1.81-.522-2.954-.08-1.143-.12-2.46-.12-3.95 0-1.57.053-2.94.16-4.11.107-1.171.308-2.169.603-2.993.295-.825.717-1.483 1.267-1.976.55-.492 1.252-.851 2.11-1.077.858-.226 1.916-.34 3.177-.34.804 0 1.668.047 2.593.14.925.094 1.681.22 2.272.38v2.394a17.76 17.76 0 00-2.031-.32c-.763-.08-1.481-.12-2.151-.12-1.099 0-1.99.114-2.673.34-.684.226-1.2.618-1.548 1.177-.35.559-.577 1.363-.684 2.414-.107 1.051-.16 2.414-.16 4.09 0 1.703.053 3.087.16 4.15.107 1.065.342 1.877.704 2.435.362.559.884.938 1.568 1.137.683.2 1.588.3 2.714.3.696 0 1.427-.04 2.19-.12.764-.08 1.454-.186 2.07-.32v2.395a17.08 17.08 0 01-2.31.379 25.61 25.61 0 01-2.634.14" mask="url(#b)"/></g></svg>
